X: 1
T: MacDonald's March, The
N: Originally in 2/4
M: 4/4
L: 1/8
K: A
eA | c2 Bc A2A2 | cAce g2 ef | =g2 ae g2 de | =gdBA GABG |
c2 Bc A2A2 | cAce g2 ef | =gdBA GABd | c2 A2 A2 :|
e2 | AA a2 =g2 ea | =gefe a2 ef | =g2 ae g2 de | =gdBA GABG |
AA a2 =g2 ea | =gefe a2 ef | =gdBA GABd | c2 A2 A2 :|
E2 | ABcd eaec | ABcd ec A2 | =GABc d=gdB | =GABc dB G2 |
ABcd eaea | =gefe a2 ef | =gdBA GABd | c2 A2 A2 :|
